static/images/onboarding/create-studios.svg

<svg width="95" height="95" viewBox="0 0 95 95" fill="none" xmlns="http://www.w3.org/2000/svg">
<path fill-rule="evenodd" clip-rule="evenodd" d="M23.0904 75.9757C35.3837 78.2711 74.3213 72.355 74.3213 72.355C78.0411 71.424 83.1675 70.4956 82.1002 69.253C74.6245 55.0978 74.3941 39.3354 70.1249 24.2736C69.9958 23.8182 69.5616 23.5195 69.0897 23.5569L12.5564 28.0459C12.5566 35.5495 14.1068 71.6458 23.0904 75.9757Z" fill="#E5F0FF"/>
<path opacity="0.25" fill-rule="evenodd" clip-rule="evenodd" d="M27.3664 72.1932C37.7848 73.3532 70.2871 68.8356 70.2871 68.8356C73.4733 68.1847 77.8569 67.5062 76.974 66.7625C72.4488 58.2139 71.6298 48.1064 70.4206 39.5491C70.3469 39.0275 69.8789 38.6558 69.3539 38.6981L17.4372 42.8782C17.4372 47.8429 19.8078 69.7107 27.3664 72.1932Z" fill="#4C97FF"/>
<path d="M66.1682 31.144C64.9998 25.8974 64.5112 22.4897 64.2301 17.4159C64.205 16.9639 63.618 16.7973 63.364 17.172C63.2012 17.4119 62.8623 17.449 62.6515 17.25L62.1487 16.7755C61.9156 16.5555 61.5387 16.6085 61.3753 16.8841L61.0596 17.4168C60.8962 17.6925 60.5193 17.7455 60.2863 17.5255L59.836 17.1005C59.6029 16.8805 59.226 16.9335 59.0626 17.2092L58.7333 17.7649C58.5743 18.0331 58.2115 18.092 57.9758 17.888L57.7313 17.6763C57.4176 17.4047 56.9296 17.6133 56.9113 18.0278C56.6585 23.7459 57.2065 27.262 58.9265 32.6815C59.0564 33.0907 59.6077 33.1524 59.8265 32.7831L60.0251 32.448C60.1885 32.1723 60.5654 32.1194 60.7985 32.3393L61.2488 32.7644C61.4818 32.9843 61.8587 32.9314 62.0221 32.6557L62.3378 32.123C62.5012 31.8473 62.8781 31.7943 63.1112 32.0143L63.5615 32.4393C63.7945 32.6593 64.1714 32.6063 64.3348 32.3307L64.685 31.7398C64.834 31.4883 65.1728 31.4302 65.3973 31.6175C65.7463 31.9089 66.267 31.5878 66.1682 31.144Z" fill="#4C97FF" fill-opacity="0.25"/>
<path d="M27.2093 34.6018C26.5027 29.2734 26.3129 25.8361 26.475 20.757C26.4895 20.3046 25.9193 20.0875 25.6335 20.4386C25.4505 20.6634 25.1096 20.6709 24.9169 20.4543L24.4574 19.9377C24.2444 19.6982 23.8643 19.7181 23.6775 19.9785L23.3166 20.4817C23.1298 20.7421 22.7497 20.762 22.5367 20.5226L22.1252 20.0599C21.9122 19.8204 21.5321 19.8404 21.3453 20.1008L20.9687 20.6257C20.787 20.8789 20.4204 20.9061 20.2035 20.6823L19.9784 20.4501C19.6895 20.1522 19.1852 20.3174 19.1308 20.7288C18.3806 26.403 18.6201 29.9535 19.8612 35.5024C19.9549 35.9213 20.4987 36.0308 20.7489 35.682L20.976 35.3655C21.1628 35.1051 21.5428 35.0852 21.7558 35.3246L22.1674 35.7873C22.3804 36.0267 22.7605 36.0068 22.9473 35.7464L23.3082 35.2433C23.495 34.9829 23.8751 34.963 24.0881 35.2024L24.4996 35.6651C24.7126 35.9045 25.0927 35.8846 25.2795 35.6242L25.6798 35.0661C25.8502 34.8286 26.1928 34.8002 26.4 35.0064C26.7224 35.3271 27.2691 35.0526 27.2093 34.6018Z" fill="#4C97FF" fill-opacity="0.25"/>
<path fill-rule="evenodd" clip-rule="evenodd" d="M48.1183 62.2638C52.0037 61.7867 54.9781 59.8626 54.5268 56.1875C54.4153 55.2792 54.1584 54.5306 53.7693 53.9259L53.2354 48.6012C53.1634 48.0143 52.4279 47.7642 51.9832 48.1734L49.2468 50.6797C48.5095 50.4156 47.6191 50.3689 46.6721 50.4852C45.7281 50.6011 44.8901 50.86 44.2387 51.2946L40.9772 49.5248C40.432 49.2371 39.7788 49.6578 39.8657 50.2428L40.6359 55.5384C40.4031 56.2195 40.3364 57.0078 40.4479 57.9162C40.8992 61.5913 44.2344 62.7407 48.1183 62.2638ZM49.3181 59.8198C49.8957 59.7489 50.4117 59.4444 50.7295 58.9798C50.9123 58.746 50.8399 58.4131 50.581 58.2463C50.3371 58.0918 49.9845 58.1635 49.8067 58.4137C49.6649 58.6141 49.4405 58.7409 49.1894 58.7718C48.7167 58.8298 48.2732 58.5155 48.2165 58.0543L48.1222 57.2857C48.9516 56.957 49.5177 56.1938 49.4626 55.7453C49.394 55.1863 48.4633 55.3006 47.3405 55.4384C46.2044 55.5779 45.2885 55.6904 45.3571 56.2493C45.4122 56.6979 46.1166 57.3051 47.0125 57.4078L47.1086 58.1904C47.1652 58.6515 46.8272 59.0618 46.3529 59.12C46.0885 59.1525 45.8386 59.0839 45.654 58.9236C45.4343 58.7222 45.0763 58.7378 44.8623 58.9484C44.6514 59.1729 44.6765 59.5117 44.8956 59.6961C45.3164 60.07 45.8907 60.2406 46.4816 60.1681C47.0282 60.101 47.5032 59.8171 47.8297 59.4224C48.2286 59.728 48.7567 59.8887 49.3181 59.8198Z" fill="#E5F0FF"/>
</svg>

<svg width="95" height="95" fill="none" xmlns="http://www.w3.org/2000/svg"><path fill-rule="evenodd" clip-rule="evenodd" d="M23.09 75.976c12.294 2.295 51.231-3.621 51.231-3.621 3.72-.931 8.847-1.86 7.78-3.102-7.477-14.155-7.707-29.918-11.976-44.98a.993.993 0 0 0-1.035-.716l-56.534 4.489c0 7.504 1.55 43.6 10.534 47.93Z" fill="#E5F0FF"/><path opacity=".25" fill-rule="evenodd" clip-rule="evenodd" d="M27.366 72.193c10.419 1.16 42.921-3.357 42.921-3.357 3.186-.651 7.57-1.33 6.687-2.073-4.525-8.55-5.344-18.657-6.553-27.214a.995.995 0 0 0-1.067-.85l-51.917 4.18c0 4.964 2.37 26.832 9.93 29.314Z" fill="#4C97FF"/><path d="M66.168 31.144C65 25.897 64.511 22.49 64.23 17.416c-.025-.452-.612-.619-.866-.244a.47.47 0 0 1-.712.078l-.503-.474a.5.5 0 0 0-.774.108l-.315.533a.5.5 0 0 1-.774.108l-.45-.424a.5.5 0 0 0-.773.108l-.33.556a.5.5 0 0 1-.757.123l-.245-.212a.495.495 0 0 0-.82.352c-.253 5.718.295 9.234 2.015 14.654.13.409.682.47.9.101l.2-.335a.5.5 0 0 1 .772-.109l.45.425a.5.5 0 0 0 .774-.108l.316-.533a.5.5 0 0 1 .773-.109l.45.425a.5.5 0 0 0 .774-.108l.35-.591a.475.475 0 0 1 .712-.122c.35.29.87-.03.771-.474ZM27.21 34.602c-.707-5.329-.897-8.766-.735-13.845.014-.452-.556-.67-.841-.318a.47.47 0 0 1-.717.015l-.46-.516a.5.5 0 0 0-.78.04l-.36.504a.5.5 0 0 1-.78.04l-.412-.462a.5.5 0 0 0-.78.04l-.376.526a.5.5 0 0 1-.766.056l-.225-.232a.495.495 0 0 0-.847.279c-.75 5.674-.51 9.224.73 14.773a.496.496 0 0 0 .888.18l.227-.317a.5.5 0 0 1 .78-.04l.411.462a.5.5 0 0 0 .78-.04l.361-.504a.5.5 0 0 1 .78-.04l.412.462a.5.5 0 0 0 .78-.04l.4-.559a.474.474 0 0 1 .72-.06c.322.321.87.047.81-.404Z" fill="#4C97FF" fill-opacity=".25"/><path fill-rule="evenodd" clip-rule="evenodd" d="M48.118 62.264c3.886-.477 6.86-2.401 6.409-6.077-.112-.908-.369-1.656-.758-2.261l-.534-5.325c-.072-.587-.807-.837-1.252-.428l-2.736 2.507c-.737-.264-1.628-.311-2.575-.195-.944.116-1.782.375-2.433.81l-3.262-1.77c-.545-.288-1.198.133-1.111.718l.77 5.295c-.233.681-.3 1.47-.188 2.378.451 3.675 3.786 4.825 7.67 4.348Zm1.2-2.444a1.997 1.997 0 0 0 1.412-.84c.182-.234.11-.567-.149-.734a.587.587 0 0 0-.774.168.88.88 0 0 1-.618.358c-.472.058-.916-.256-.972-.718l-.095-.768c.83-.329 1.396-1.092 1.34-1.54-.068-.56-.999-.445-2.122-.308-1.136.14-2.052.252-1.983.811.055.449.76 1.056 1.656 1.159l.096.782c.056.462-.282.872-.756.93a.886.886 0 0 1-.699-.196.585.585 0 0 0-.792.024.514.514 0 0 0 .034.748c.42.374.995.545 1.586.472a2.085 2.085 0 0 0 1.348-.746c.399.306.927.467 1.488.398Z" fill="#E5F0FF"/></svg>
